icons/tag-24.svg

<svg xmlns="http://www.w3.org/2000/svg" width="24" height="24" viewBox="0 0 24 24">
  <defs/>
  <path d="M7.75,6.5 A1.25 1.25 0 1 0 7.75,9 A1.25 1.25 0 0 0 7.75,6.5 Z"/>
  <path d="M2.5,1 L10.94,1 C11.338,1 11.719,1.159 12,1.44 L22.25,11.69 C22.835,12.276 22.835,13.224 22.25,13.81 L13.81,22.25 C13.224,22.835 12.276,22.835 11.69,22.25 L1.44,12 C1.158,11.719 1,11.337 1,10.94 L1,2.5 C1,1.672 1.672,1 2.5,1 Z M2.5,2.5 L2.5,10.94 L12.75,21.19 L21.19,12.75 L10.94,2.5 Z"/>
</svg>

<svg xmlns="http://www.w3.org/2000/svg" width="24" height="24" viewBox="0 0 24 24"><path d="M7.75 6.5a1.25 1.25 0 100 2.5 1.25 1.25 0 000-2.5z"/><path d="M2.5 1h8.44a1.5 1.5 0 011.06.44l10.25 10.25a1.5 1.5 0 010 2.12l-8.44 8.44a1.5 1.5 0 01-2.12 0L1.44 12A1.497 1.497 0 011 10.94V2.5A1.5 1.5 0 012.5 1zm0 1.5v8.44l10.25 10.25 8.44-8.44L10.94 2.5z"/></svg>
